packages/components/icon/src/assets/icons/radio-on.svg

<svg width="24" height="24" viewBox="0 0 24 24" fill="none" xmlns="http://www.w3.org/2000/svg">
<path fill-rule="evenodd" clip-rule="evenodd" d="M12.1136 20.2273C10.6384 20.2273 9.27893 19.8657 8.03512 19.1426C6.79132 18.4194 5.80785 17.436 5.08471 16.1921C4.36157 14.9483 4 13.5889 4 12.1136C4 10.6384 4.36157 9.27893 5.08471 8.03512C5.80785 6.79132 6.79132 5.80785 8.03512 5.08471C9.27893 4.36157 10.6384 4 12.1136 4C13.5889 4 14.9483 4.36157 16.1921 5.08471C17.436 5.80785 18.4194 6.79132 19.1426 8.03512C19.8657 9.27893 20.2273 10.6384 20.2273 12.1136C20.2273 13.5889 19.8657 14.9483 19.1426 16.1921C18.4194 17.436 17.436 18.4194 16.1921 19.1426C14.9483 19.8657 13.5889 20.2273 12.1136 20.2273ZM12.1136 15.4545C12.7211 15.4545 13.2815 15.3063 13.7949 15.0098C14.3084 14.7133 14.7133 14.3084 15.0098 13.7949C15.3063 13.2815 15.4545 12.7211 15.4545 12.1136C15.4545 11.5062 15.3063 10.9458 15.0098 10.4323C14.7133 9.9189 14.3084 9.51395 13.7949 9.21746C13.2815 8.92097 12.7211 8.77273 12.1136 8.77273C11.5062 8.77273 10.9458 8.92097 10.4323 9.21746C9.9189 9.51395 9.51395 9.9189 9.21746 10.4323C8.92097 10.9458 8.77273 11.5062 8.77273 12.1136C8.77273 12.7211 8.92097 13.2815 9.21746 13.7949C9.51395 14.3084 9.9189 14.7133 10.4323 15.0098C10.9458 15.3063 11.5062 15.4545 12.1136 15.4545Z" fill="currentColor"/>
</svg>

<svg viewBox="0 0 24 24" fill="none" xmlns="http://www.w3.org/2000/svg"><path fill-rule="evenodd" clip-rule="evenodd" d="M12.114 20.227a7.971 7.971 0 0 1-4.079-1.084 8.02 8.02 0 0 1-2.95-2.95A7.97 7.97 0 0 1 4 12.112a7.97 7.97 0 0 1 1.085-4.078 8.02 8.02 0 0 1 2.95-2.95A7.97 7.97 0 0 1 12.114 4a7.97 7.97 0 0 1 4.078 1.085 8.02 8.02 0 0 1 2.95 2.95 7.971 7.971 0 0 1 1.085 4.079 7.971 7.971 0 0 1-1.084 4.078 8.02 8.02 0 0 1-2.95 2.95 7.971 7.971 0 0 1-4.08 1.085Zm0-4.773c.607 0 1.167-.148 1.68-.444a3.264 3.264 0 0 0 1.216-1.215 3.303 3.303 0 0 0 .444-1.681 3.31 3.31 0 0 0-.444-1.682 3.264 3.264 0 0 0-1.215-1.215 3.303 3.303 0 0 0-1.681-.444 3.31 3.31 0 0 0-1.682.444 3.265 3.265 0 0 0-1.215 1.215 3.304 3.304 0 0 0-.444 1.682c0 .607.148 1.167.444 1.68.297.514.702.92 1.215 1.216a3.303 3.303 0 0 0 1.682.444Z" fill="currentColor"/></svg>
